shorty/img/actions/info.svg

<?xml version="1.0" encoding="UTF-8" standalone="no"?>
<!-- Created using Karbon, part of Calligra: http://www.calligra.org/karbon -->

<svg
   xmlns:dc="http://purl.org/dc/elements/1.1/"
   xmlns:cc="http://creativecommons.org/ns#"
   xmlns:rdf="http://www.w3.org/1999/02/22-rdf-syntax-ns#"
   xmlns:svg="http://www.w3.org/2000/svg"
   xmlns="http://www.w3.org/2000/svg"
   xmlns:sodipodi="http://sodipodi.sourceforge.net/DTD/sodipodi-0.dtd"
   xmlns:inkscape="http://www.inkscape.org/namespaces/inkscape"
   width="16"
   height="16"
   id="svg2"
   version="1.1"
   inkscape:version="0.48.4 r9939"
   sodipodi:docname="info.svg"
   inkscape:export-filename="/srv/www/htdocs/owncloud/apps/shorty/img/actions/info.png"
   inkscape:export-xdpi="1.4732735"
   inkscape:export-ydpi="1.4732735">
  <title
     id="title3273">info</title>
  <metadata
     id="metadata11">
    <rdf:RDF>
      <cc:Work
         rdf:about="">
        <dc:format>image/svg+xml</dc:format>
        <dc:type
           rdf:resource="http://purl.org/dc/dcmitype/StillImage" />
        <dc:title>info</dc:title>
        <cc:license
           rdf:resource="http://creativecommons.org/licenses/by-nc-sa/3.0/" />
        <dc:rights>
          <cc:Agent>
            <dc:title>Copyright 2012, Christian Reiner, Hamburg, Germany</dc:title>
          </cc:Agent>
        </dc:rights>
        <dc:creator>
          <cc:Agent>
            <dc:title>Christian Reiner</dc:title>
          </cc:Agent>
        </dc:creator>
        <dc:publisher>
          <cc:Agent>
            <dc:title>Christian Reiner</dc:title>
          </cc:Agent>
        </dc:publisher>
        <dc:subject>
          <rdf:Bag>
            <rdf:li>info</rdf:li>
            <rdf:li>action</rdf:li>
          </rdf:Bag>
        </dc:subject>
      </cc:Work>
      <cc:License
         rdf:about="http://creativecommons.org/licenses/by-nc-sa/3.0/">
        <cc:permits
           rdf:resource="http://creativecommons.org/ns#Reproduction" />
        <cc:permits
           rdf:resource="http://creativecommons.org/ns#Distribution" />
        <cc:requires
           rdf:resource="http://creativecommons.org/ns#Notice" />
        <cc:requires
           rdf:resource="http://creativecommons.org/ns#Attribution" />
        <cc:prohibits
           rdf:resource="http://creativecommons.org/ns#CommercialUse" />
        <cc:permits
           rdf:resource="http://creativecommons.org/ns#DerivativeWorks" />
        <cc:requires
           rdf:resource="http://creativecommons.org/ns#ShareAlike" />
      </cc:License>
    </rdf:RDF>
  </metadata>
  <sodipodi:namedview
     pagecolor="#ffffff"
     bordercolor="#666666"
     borderopacity="1"
     objecttolerance="10"
     gridtolerance="10"
     guidetolerance="10"
     inkscape:pageopacity="0"
     inkscape:pageshadow="2"
     inkscape:window-width="1920"
     inkscape:window-height="1114"
     id="namedview9"
     showgrid="false"
     inkscape:zoom="162.37945"
     inkscape:cx="7.20824"
     inkscape:cy="14.546439"
     inkscape:window-x="-4"
     inkscape:window-y="-4"
     inkscape:window-maximized="1"
     inkscape:current-layer="svg2"
     showborder="true"
     inkscape:showpageshadow="false" />
  <defs
     id="defs4" />
  <g
     id="layer0"
     transform="matrix(0.01971178,0,0,0.01559867,0.52084295,0.01126753)">
    <g
       id="g4314"
       transform="translate(212.946,163.839)"
       style="fill:none">
      <path
         id="path3536"
         transform="translate(-61.9006,-148.543)"
         d="m 0,487.048 c 12.4425,24.828 26.0633,44.836 51.6189,16.019 C 84.1849,485.573 192.482,410.026 184.704,480.779 155.218,612.203 117.891,742.51 90.9063,874.249 59.539,946.936 141.764,1009.03 222.092,959.781 308.42,926.996 381.595,875.821 456.598,828.62 445.035,807.645 436.536,777.24 408.795,806.094 371.289,821.672 291.128,891.94 272.933,836.765 298.192,694.682 351.067,556.912 382.294,415.755 414.151,350.273 353.103,270.879 270.187,326.914 169.549,367.14 86.8111,430.152 0,487.048 z M 357.158,0.174395 C 252.436,-0.955228 204.536,139.982 305.684,174.775 387.572,199.404 471.99,128.261 449.008,60.7166 441.179,25.4089 401.168,-2.47535 357.159,0.174395 z"
         inkscape:connector-curvature="0"
         style="fill:#000000" />
    </g>
  </g>
</svg>

<?xml version="1.0" encoding="UTF-8" standalone="no"?>
<svg xmlns:rdf="http://www.w3.org/1999/02/22-rdf-syntax-ns#" xmlns="http://www.w3.org/2000/svg" height="16" width="16" version="1.1" xmlns:cc="http://creativecommons.org/ns#" xmlns:dc="http://purl.org/dc/elements/1.1/">
 <title>info</title>
 <g transform="matrix(.019712 0 0 .015599 .52084 .011268)">
  <g fill="none" transform="translate(212.95 163.84)">
   <path d="m0 487.05c12.442 24.828 26.063 44.836 51.619 16.019 32.566-17.5 140.86-93.04 133.08-22.29-29.48 131.42-66.81 261.73-93.794 393.47-31.367 72.69 50.854 134.75 131.18 85.53 86.33-32.78 159.51-83.96 234.51-131.16-11.56-20.98-20.06-51.38-47.8-22.53-37.51 15.58-117.67 85.85-135.87 30.67 25.26-142.08 78.14-279.85 109.36-421 31.86-65.49-29.19-144.88-112.1-88.85-100.64 40.23-183.38 103.24-270.19 160.14zm357.16-486.88c-104.72-1.1296-152.62 139.81-51.48 174.61 81.89 24.62 166.31-46.52 143.33-114.06-7.83-35.311-47.84-63.195-91.85-60.546z" fill="#000" transform="translate(-61.901 -148.54)"/>
  </g>
 </g>
</svg>
